public/icons/message_square.svg

<svg width="25" height="24" viewBox="0 0 25 24" fill="none" xmlns="http://www.w3.org/2000/svg">
<path fill-rule="evenodd" clip-rule="evenodd" d="M5.91629 2C5.12064 2 4.35758 2.31607 3.79497 2.87868C3.23236 3.44129 2.91629 4.20435 2.91629 5V21C2.91629 21.4045 3.15993 21.7691 3.53361 21.9239C3.90728 22.0787 4.3374 21.9931 4.6234 21.7071L8.3305 18H19.9163C20.7119 18 21.475 17.6839 22.0376 17.1213C22.6002 16.5587 22.9163 15.7957 22.9163 15V5C22.9163 4.20435 22.6002 3.44129 22.0376 2.87868C21.475 2.31607 20.7119 2 19.9163 2H5.91629ZM5.20918 4.29289C5.39672 4.10536 5.65107 4 5.91629 4H19.9163C20.1815 4 20.4359 4.10536 20.6234 4.29289C20.8109 4.48043 20.9163 4.73478 20.9163 5V15C20.9163 15.2652 20.8109 15.5196 20.6234 15.7071C20.4359 15.8946 20.1815 16 19.9163 16H7.91629C7.65107 16 7.39672 16.1054 7.20918 16.2929L4.91629 18.5858V5C4.91629 4.73478 5.02165 4.48043 5.20918 4.29289Z" fill="#19191B"/>
</svg>

<svg xmlns="http://www.w3.org/2000/svg" width="25" height="24" fill="none"><path fill="#19191B" fill-rule="evenodd" d="M5.916 2a3 3 0 0 0-3 3v16a1 1 0 0 0 1.707.707L8.331 18h11.585a3 3 0 0 0 3-3V5a3 3 0 0 0-3-3h-14ZM5.21 4.293A1 1 0 0 1 5.916 4h14a1 1 0 0 1 1 1v10a1 1 0 0 1-1 1h-12a1 1 0 0 0-.707.293l-2.293 2.293V5a1 1 0 0 1 .293-.707Z" clip-rule="evenodd"/></svg>
